dist/assets/img/categoria-programacao.svg

<?xml version="1.0" encoding="UTF-8" standalone="no"?>
<svg width="25px" height="29px" viewBox="0 0 25 29" version="1.1" xmlns="http://www.w3.org/2000/svg" xmlns:xlink="http://www.w3.org/1999/xlink" xmlns:sketch="http://www.bohemiancoding.com/sketch/ns">
    <!-- Generator: sketchtool 3.4.4 (395) - http://www.bohemiancoding.com/sketch -->
    <title>programacao</title>
    <desc>Created with sketchtool.</desc>
    <defs></defs>
    <g id="Page-1" stroke="none" stroke-width="1" fill="none" fill-rule="evenodd" sketch:type="MSPage">
        <g id="Desktop-HD" sketch:type="MSArtboardGroup" transform="translate(-348.000000, -500.000000)" fill="#FFFFFF">
            <g id="Page-1" sketch:type="MSLayerGroup" transform="translate(348.000000, 500.000000)">
                <path d="M13.6557091,14.1908405 L8.49666552,9.03212282 C7.89231668,8.42761104 6.91189961,8.42777399 6.30755078,9.03228576 C5.70303901,9.63679753 5.70303901,10.6168887 6.30771372,11.2214005 L10.5128997,15.4260976 L6.30771372,19.6309577 C5.70303901,20.2354694 5.70303901,21.2155606 6.30755078,21.8200724 C6.60996961,22.1223283 7.00591667,22.2733747 7.40218962,22.2733747 C7.79829962,22.2733747 8.19440963,22.1223283 8.49666552,21.8200724 L13.6557091,16.6615176 C13.9938121,16.3234147 14.1425773,15.8678311 14.1024938,15.4260976 C14.1425773,14.984527 13.9938121,14.5289435 13.6557091,14.1908405 Z M23.3169804,19.5529414 L15.8216862,19.5529414 C14.9667338,19.5529414 14.273745,20.2459302 14.273745,21.1008826 C14.273745,21.955835 14.9667338,22.6488238 15.8216862,22.6488238 L23.3169804,22.6488238 C24.1719328,22.6488238 24.8649216,21.955835 24.8649216,21.1008826 C24.8649216,20.2459302 24.1719328,19.5529414 23.3169804,19.5529414 Z M23.398451,25.9076474 L3.38063839,25.9076474 C3.11569604,25.9076474 2.93287604,25.6961497 2.93287604,25.4312074 L2.93287604,3.47879416 C2.93287604,3.2138518 3.11569604,2.93294121 3.38063839,2.93294121 L23.398451,2.93294121 C24.2084316,2.93294121 24.8649216,2.2764512 24.8649216,1.46647061 C24.8649216,0.656490008 24.2084316,0 23.398451,0 L3.38063839,0 C1.49394249,0 -6.51764713e-05,1.59193531 -6.51764713e-05,3.47879416 L-6.51764713e-05,25.4312074 C-6.51764713e-05,27.3180662 1.49394249,28.8405886 3.38063839,28.8405886 L23.398451,28.8405886 C24.2084316,28.8405886 24.8649216,28.1840986 24.8649216,27.374118 C24.8649216,26.5641374 24.2084316,25.9076474 23.398451,25.9076474 Z" id="programacao" sketch:type="MSShapeGroup"></path>
            </g>
        </g>
    </g>
</svg>

<svg width="25" height="29" viewBox="0 0 25 29" xmlns="http://www.w3.org/2000/svg"><title>programacao</title><g id="Page-1" fill="none" fill-rule="evenodd"><g id="Desktop-HD" transform="translate(-348 -500)" fill="#FFF"><g id="Page-1" transform="translate(348 500)"><path d="M13.656 14.19l-5.16-5.158a1.548 1.548 0 1 0-2.188 2.19l4.205 4.204-4.205 4.205a1.548 1.548 0 1 0 2.189 2.19l5.159-5.16c.338-.338.487-.793.446-1.235a1.544 1.544 0 0 0-.446-1.235zm9.661 5.363h-7.495a1.548 1.548 0 1 0 0 3.096h7.495a1.548 1.548 0 1 0 0-3.096zm.081 6.355H3.381c-.265 0-.448-.212-.448-.477V3.48c0-.265.183-.546.448-.546h20.017a1.466 1.466 0 1 0 0-2.933H3.381C1.494 0 0 1.592 0 3.479V25.43c0 1.887 1.494 3.41 3.38 3.41h20.018a1.466 1.466 0 1 0 0-2.933z" id="programacao"/></g></g></g></svg>
